!!!OTL: 108a. Des Muellers Toechterlein.
!!!ARE: Europa, Mitteleuropa, Deutschland, Schlesien
!!!SCT: E0108
!!!TXL: @@DE
!!!YEM: Copyright 1995, estate of Helmut Schaffrath.
**kern	**text
*ICvox	*
*M4/4	*
*met(c)	*
*k[b-]	*
*F:	*
!LO:TX:a:t=Langſam.	!
!LO:TX:a:t=Aus dem Odenwald, Franken u. Thüringen.	!
{8c	Mei-
8c	-ſter
=1	=1
4f	Mül-
4f	-ler
8f/L	thut
8a	.
8ccJ	.
8a	mal
=2	=2
4a	ſe-
4g	-hen,
4r}	.
{8g	was
8a	in
=3	=3
4b-	ſei-
4b-	-ner
8b-L	Müh-
8dd	-le
8ccJ	iſt
8b-	ge-
=4	=4
4b-/	-ſche-
4a	-hen;
4r}	.
{8a	denn
8b-/	das
=5	=5
4cc	Rad
8aL	das
8b-J	.
8ccL	bleibt
8ff	ganʒ
8eeJ	ſtil-
8dd	-le
=6	=6
(4dd	ſtehn,
4cc)	.
8r}	.
{8cc	es
8cc	muß
8dd	et-
=7	=7
4.cc	-was
8dd	ʒu
8ccL	Grun-
8b-	.
8eJ	.
8g	-de
=8	=8
(4g	gehn.
4f)	.
4r}	.
{8a	denn
8b-/	das
=9	=9
4cc	Rad
8aL	das
8b-J	.
8ccL	bleibt
8ff	ganʒ
8eeJ	ſtil-
8dd	-le
=10	=10
(4dd	ſtehn,
4cc)	.
8r}	.
{8cc	es
8cc	muß
8dd	et-
=11	=11
4.cc	-was
8dd	ʒu
8ccL	Grun-
8b-	.
8eJ	.
8g	-de
=12	=12
(4g	gehn.
4f)	.
4r}	.
==	==
!!!AGN: erzaehlendes Volks - Lied, Sage, Liebe, Leid, Tod, Ballade ?
!!!ONB: ESAC (Essen Associative Code) Database: ERK1
!!!AMT: simple quadruple
!!!AIN: vox
!!!EED: Helmut Schaffrath
!!!EEV: 1.0
!!!GTL: Liebesgeschichten mit tragischem Schluss
!!!URL-scan: https://rosdok.uni-rostock.de/mcrviewer/recordIdentifier/rosdok_ppn745146120/iview2/phys_0449.iview2?x=-422.27491384562836&y=850.5816676840186&scale=0.554360769283424&rotation=0&layout=singlePageLayout
!!!ENC: Anna Maria Matuszewska
!!!EEV: 2024/02/12
*-	*-
